X:1
T:Deh, Salvator de l'anime smarite
T:Agostino Agostini
T:Deh, Salvator de l'anime smarite
C:Agostino Agostini
%%score [ 1 2 3 4 ]
L:1/8
Q:1/4=120
M:4/2
K:F
V:1 alto1 nm="Soprano" snm="S"
V:2 alto nm="Alto" snm="A"
V:3 tenor nm="Tenor" snm="T"
V:4 bass nm="Bass" snm="B"
V:1
 z16 |[K:G][K:treble] z16 | z16 | c12 A4- | A4 A4 B4 c4 | B6 B2 G4 A4 | B12 A4 | z4 B4 c6 B2 | %8
w: |||Deh, Sal-|* va- tor de|l'a- ni- me sma-|ri- te,|Ch'i spes- si e|
 A2 B2 c2 A2 B2 c4 B2 | c4 B4 A4 A4- | A4 G4 =F8 | E8 z4 G4 | A6 B2 c4 d4 | e8 ^c8 | %14
w: cal- * * * * * di|pre- ghi, Pie- to-|* so as- col-|ti et|gra- tia mai non|nie- ghi,|
 z4 A4 c4 B2 c2- | c2 c2 A4 G2 E2 G2 A2 | B4 c4 B4 A4 | z4 c8 B4 | e8 ^d4 e4 | c6 B2 A4 ^G4 | %20
w: Hor con pie- ta-|* de as- col- ta, Hor con pie-|ta- de as- col- ta,|Ch'io con-|tri- to e do-|len- * * te,|
 z4 A6 A2 A4 | =F4 F4 E8 | F4 F2 F4 E2 E4- | E2 ^D^C D4 E4 F4- | F4 F4 G4 A4 | B4 c6 BA B4 | %26
w: Ch'io con- tri-|to e do- len-|te e ver- go- gno-|* * * * so o-|* gni mio er- ror|con- fes- * * *|
 c8 z4 G4 | A4 B4 G8- | G4 G4 A8 | G8 z4 G4 | B6 B2 F4 F4 | A4 G2 F2 G2 A2 B4 | A4 A8 G4 | %33
w: so e|ben co- no-|* sco io stes-|so, Che|l'al- ma mia in|tan- * * * * *|ti fal- li a-|
 =F8 E4 z4 | z4 A4 G4 c4 | B4 G4 G4 d4 | d6 c2 B2 A2 B4 | G2 c4 B2 A2 G2 A4 | B8 z8 | G8 F4 E4 | %40
w: vol- ta,|Sal- var mai|non si puo se|non _ _ _ _|si pen- * * * *|te,|On- de pen-|
 E8 D4 z2 d2 | B4 c2 d4 B2 c3 B | B2 AG A4 B4 z4 | z16 | d16 | B8 c4 A4- | A2 A2 d8 c4- | %47
w: ti- ta e'n|la tua fe- de ac- ce- *|* * * * sa,||Pre-|ga che gli|_ can- cel- li o-|
 c4 B4 B4 A4- | A2 G2 G8 F4 | G8 z8 | G8 F4 E4 | E8 D4 z2 d2 | B4 c2 d4 B2 c3 B | B2 AG A4 B4 z4 | %54
w: * gni tua of- fe-||sa,|On- de pen-|ti- ta e'n|la tua fe- de ac- ce- *|* * * * sa,|
 z16 | d16 | B8 c4 A4- | A2 A2 d8 c4- | c4 B4 B4 A4- | A2 G2 G8 F4 | G16 |] %61
w: |Pre-|ga che gli|_ can- cel- li o-|* gni tua of- fe-||sa.|
V:2
 z16 |[K:G][K:treble] z16 | G16 | E12 E4 | C2 D2 E2 F2 G4 G4 | G6 F2 E4 E4 | D4 E4 F8 | G8 z4 G4 | %8
w: ||Deh,|Sal- va-|tor _ _ _ _ de|l'a- * * ni-|me sma- ri-|te, Ch'i|
 E6 F2 G4 G4 | G8 C4 D4 | C4 B,4 D8 | A,4 z4 z4 E4 | E2 E2 c4 A4 A4- | A2 ^GF G4 A4 z2 E2- | %14
w: spes- si e cal- di|pre- ghi, Pie-|to- so as- col-|ti et|gra- tia mai non nie-|* * * * ghi, Hor|
 E2 G4 F2 E4 E4 | C6 B,A, B,8 | B,4 z2 E2 G2 F2 E4 | A4 A4 G4 G4- | G4 A4 B4 B2 G2 | A4 A4 z8 | %20
w: _ con pie- ta- de as-|col- * * *|ta, Hor con pie- ta-|de as- col- ta, Ch'io|_ con- tri- to e do-|len- te,|
 ^C8 D4 E4- | E4 D8 ^C4 | D8 B,4 B,4 | B,8 B,4 D4 | D4 z2 D2 D4 E4 | F4 G4 G8 | %26
w: Ch'io con- tri-|* to e do-|len- te e|ver- go- gno-|so o- gni mio er-|ror con- fes-|
 E4 z2 G2 F4 E2 G2- | G2 F2 G4 E4 z2 E2 | D4 E4 =F4 F4 | E6 D2 C4 B,4 | z4 D4 D6 D2 | %31
w: so e ben co- no-|* sco io stes- so, e|ben co- no- sco io|stes- * * so,|Che l'al- ma|
 E4 C4 B,4 G,4 | A,6 B,2 C4 B,4 | z4 D4 C4 =F4- | F2 E4 D2 E8 | z4 E4 D4 G4 | F4 A4 G4 F4 | %37
w: mia in tan- ti|fal- li a- vol- ta,|Sal- var mai|_ non si puo,|Sal- var mai|non si puo se|
 E2 G2 G6 FE F4 | G8 z8 | D8 D4 B,4 | C12 B,4 | G2 E4 F2 G4 F2 G2- | G2 FE F4 G2 D2 G3 E | %43
w: non si pen- * * *|te,|On- de pen-|ti- ta|e'n la tua fe- de ac- ce-|* * * * sa, e'n la tua|
 A4 =F4 E8 | F8 G8- | G8 E8 | D4 A8 A4 | G8 F8 | E4 ^C4 D8 | D8 z8 | D8 D4 B,4 | C12 B,4 | %52
w: fe- de ac- ce-|sa, Pre-|* ga|che gli can-|cel- li o-|gni tua of- fe-|sa,|On- de pen-|ti- ta|
 G2 E4 F2 G4 F2 G2- | G2 FE F4 G2 D2 G3 E | A4 =F4 E8 | F8 G8- | G8 E8 | D4 A8 A4 | G8 F8 | %59
w: e'n la tua fe- de ac- ce-|* * * * sa, e'n la tua|fe- de ac- ce-|sa, Pre-|* ga|che gli can-|cel- li o-|
 E4 ^C4 D8 | D16 |] %61
w: gni tua of- fe-|sa.|
V:3
 z16 |[K:G][K:treble-8] g12 e4- | e4 e4 e8 | A4 A6 B2 c2 d2 | e4 c4 d4 e4 | e6 d2 c2 B2 c4 | %6
w: |Deh, Sal-|* va- tor|de l'a- * * *|* ni- me sma-|ri- * * * *|
 B8 z4 d4 | c4 d2 e4 =f2 e4 | c6 c2 d2 e2 d4 | e8 z8 | z4 G4 A6 B2 | c4 B4 e6 d2 | c8 c4 z2 A2 | %13
w: te, Ch'i|spes- si e cal- di pre-|ghi, Pie- to- so as- col-|ti|et gra- tia|mai non nie- *|* ghi, Hor|
 c4 B4 A4 A4 | G2 E2 A8 G4 | z2 A2 c2 d2 e4 e4 | d4 c2 c2 d4 A4 | =f4 e4 d4 d4 | z4 c4 B4 e4 | %19
w: con pie- ta- de as-|col- * * ta,|Hor con pie- ta- de as-|col- ta, Hor con pie-|ta- de as- col- ta,|Ch'io con- tri-|
 A6 B2 c2 d2 e4 | e4 =f8 e4 | A16 | A12 G4 | F8 ^G4 z4 | A8 B4 c4 | d4 e4 d8 | c4 z2 e2 d4 B4 | %27
w: to e _ _ _ _|do- len- te|e|ver- go-|gno- so|o- gni mio er-|ror con- fes-|so e ben co-|
 d4 d4 c8 | B8 z8 | c8 e6 e2 | B8 B4 A2 B2 | c2 d2 e8 e4 | c2 B2 c2 d2 e4 e4 | A8- A6 B2 | %34
w: no- sco io stes-|so,|Che l'al- ma|mia in tan- *|* * * ti|fal- * * * * li a-|vol- * *|
 c4 A4 z4 A4 | G4 c4 B4 B4 | A4 =f4 e6 d2 | c4 d4 d8 | d8 z8 | B8 A4 G4 | G8 G8 | z16 | %42
w: * ta, Sal-|var mai non si|puo se non _|_ si pen-|te,|On- de pen-|ti- ta||
 z4 d4 d4 B2 c2- | c2 A2 d6 ^cB c4 | d4 d8 B4 | d4 e8 c4 | =f8 e8 | e4 e4 d6 c2 | B4 A2 G2 A8 | %49
w: e'n la tua fe-|* de ac- ce- * * *|sa, Pre- ga|che gli can-|cel- li o-|gni tua of- fe- *||
 G8 z8 | B8 A4 G4 | G8 G8 | z16 | z4 d4 d4 B2 c2- | c2 A2 d6 ^cB c4 | d4 d8 B4 | d4 e8 c4 | %57
w: sa,|On- de pen-|ti- ta||e'n la tua fe-|* de ac- ce- * * *|sa, Pre- ga|che gli can-|
 =f8 e8 | e4 e4 d6 c2 | B4 A2 G2 A8 | G16 |] %61
w: cel- li o-|gni tua of- fe- *||sa.|
V:4
 z16 |[K:G] z16 | z8 C8- | C8 A,8- | A,4 A,4 G,4 C,4 | E,6 B,,2 E,4 A,,4 | G,8 D,8 | %7
w: ||Deh,|_ Sal-|* va- tor de|l'a- ni- me sma-|ri- te,|
 z4 G,4 A,4 E,4 | A,4 A,4 G,8 | C,4 E,4 =F,4 F,4 | E,8 D,8 | z4 E,4 E,2 E,2 C4 | A,4 A,6 G,2 =F,4 | %13
w: Ch'i spes- si e|cal- di pre-|ghi, Pie- to- so as-|col- ti|et gra- tia mai|non nie- * *|
 E,8 z4 A,,4 | C,4 D,4 E,4 E,4 | =F,8 E,4 E,4 | G,4 A,4 B,4 C4 | =F,8 G,8 | C,8 z8 | =F,12 E,4 | %20
w: ghi, Hor|con pie- ta- de as-|col- ta, Hor|con pie- ta- de as-|col- *|ta,|Ch'io con-|
 A,8 D,4 ^C,4 | D,8 A,,8 | D,8 E,4 E,4 | B,,8 E,4 z2 D,2 | D,4 D,4 G,8- | G,4 G,4 G,8 | %26
w: tri- to e do-|len- te|e ver- go-|gno- so o-|gni mio er- ror|_ con- fes-|
 C,8 z4 E,4 | D,4 B,,4 C,4 E,4 | G,8 D,8 | z4 C,8 E,4- | E,2 E,2 B,,8 D,4 | %31
w: so e|ben co- no- sco io|stes- so,|Che l'al-|* ma mia in|
 A,,2 B,,2 C,2 D,2 E,4 E,4 | =F,4 F,4 E,8 | D,8 z4 D,4 | D,4 =F,4 E,4 A,,4 | E,6 F,2 G,4 G,4 | %36
w: tan- * * * * ti|fal- li a- vol-|ta, Sal-|var mai non si|puo se non si|
 D,8 E,4 B,,4 | C,4 G,,4 D,8 | G,,8 z8 | G,8 D,4 E,4 | C,8 G,,8 | z16 | z4 D,4 G,6 E,2 | %43
w: pen- te, se|non si pen-|te,|On- de pen-|ti- ta||e'n la tua|
 =F,4 D,4 A,8 | D,8 G,8- | G,4 E,4 A,8 | D,4 D,4 A,,8 | E,8 B,,4 D,4 | E,8 D,8 | G,,8 z8 | %50
w: fe- de ac- ce-|sa, Pre-|* ga che|gli can- cel-|li o- gni tua of-|fe- *|sa,|
 G,8 D,4 E,4 | C,8 G,,8 | z16 | z4 D,4 G,6 E,2 | =F,4 D,4 A,8 | D,8 G,8- | G,4 E,4 A,8 | %57
w: On- de pen-|ti- ta||e'n la tua|fe- de ac- ce-|sa, Pre-|* ga che|
 D,4 D,4 A,,8 | E,8 B,,4 D,4 | E,8 D,8 | G,,16 |] %61
w: gli can- cel-|li o- gni tua of-|fe- *|sa.|

